src/images/app-icons/light-theme/WatsonTextToSpeech.svg

<svg xmlns="http://www.w3.org/2000/svg" xmlns:xlink="http://www.w3.org/1999/xlink" viewBox="0 0 32 32"><defs><linearGradient id="WatsonTextToSpeech_svg__a" x1="-200" y1="24.5" x2="-192" y2="24.5" gradientTransform="translate(208)" gradientUnits="userSpaceOnUse"><stop offset="0" stop-opacity="0"/><stop offset=".8"/></linearGradient><linearGradient id="WatsonTextToSpeech_svg__b" x1="-3321" y1="-3597" x2="-3313" y2="-3597" gradientTransform="translate(3335 3603)" xlink:href="#WatsonTextToSpeech_svg__a"/><linearGradient id="WatsonTextToSpeech_svg__d" y1="32" x2="32" gradientUnits="userSpaceOnUse"><stop offset=".1" stop-color="#a56eff"/><stop offset=".9" stop-color="#0f62fe"/></linearGradient><mask id="WatsonTextToSpeech_svg__c" x="0" y="0" width="32" height="32" maskUnits="userSpaceOnUse"><path d="M28 14h-2v-2a5.006 5.006 0 00-5-5h-6V5h6a7.008 7.008 0 017 7zM15 26h-4a7.008 7.008 0 01-7-7v-2h2v2a5.006 5.006 0 005 5h4z" fill="#fff"/><path fill="url(#WatsonTextToSpeech_svg__a)" d="M8 22h8v5H8z"/><path transform="rotate(180 18 6)" fill="url(#WatsonTextToSpeech_svg__b)" d="M14 4h8v4h-8z"/><path fill="#fff" d="M2 3h12v2H2zM2 7h12v2H2zM2 11h6v2H2z"/></mask></defs><g data-name="Layer 2"><g data-name="Light theme icons"><g mask="url(#WatsonTextToSpeech_svg__c)"><path fill="url(#WatsonTextToSpeech_svg__d)" d="M0 0h32v32H0z"/></g><path d="M18 18h10a2 2 0 012 2v6a2 2 0 01-2 2h-2.423l-1.731 3-1.733-1 2.31-4H28v-6H18v6h3v2h-3a2 2 0 01-2-2v-6a2 2 0 012-2z" fill="#001d6c"/></g></g></svg>

<svg xmlns="http://www.w3.org/2000/svg" xmlns:xlink="http://www.w3.org/1999/xlink" viewBox="0 0 32 32"><defs><style>.cls-1{fill:#fff;}.cls-2{fill:url(#linear-gradient);}.cls-3{fill:url(#linear-gradient-2);}.cls-4{mask:url(#mask);}.cls-5{fill:url(#New_Gradient_Swatch_1);}.cls-6{fill:#001d6c;}</style><linearGradient id="linear-gradient" x1="-200" y1="24.5" x2="-192" y2="24.5" gradientTransform="translate(208)" gradientUnits="userSpaceOnUse"><stop offset="0" stop-opacity="0"/><stop offset="0.8"/></linearGradient><linearGradient id="linear-gradient-2" x1="-3321" y1="-3597" x2="-3313" y2="-3597" gradientTransform="translate(3335 3603)" xlink:href="#linear-gradient"/><mask id="mask" x="0" y="0" width="32" height="32" maskUnits="userSpaceOnUse"><path class="cls-1" d="M28,14H26V12a5.006,5.006,0,0,0-5-5H15V5h6a7.008,7.008,0,0,1,7,7Z"/><path class="cls-1" d="M15,26H11a7.008,7.008,0,0,1-7-7V17H6v2a5.006,5.006,0,0,0,5,5h4Z"/><rect class="cls-2" x="8" y="22" width="8" height="5"/><rect class="cls-3" x="14" y="4" width="8" height="4" transform="translate(36 12) rotate(180)"/><rect class="cls-1" x="2" y="3" width="12" height="2"/><rect class="cls-1" x="2" y="7" width="12" height="2"/><rect class="cls-1" x="2" y="11" width="6" height="2"/></mask><linearGradient id="New_Gradient_Swatch_1" y1="32" x2="32" gradientUnits="userSpaceOnUse"><stop offset="0.1" stop-color="#a56eff"/><stop offset="0.9" stop-color="#0f62fe"/></linearGradient></defs><g id="Layer_2" data-name="Layer 2"><g id="Light_theme_icons" data-name="Light theme icons"><g class="cls-4"><rect class="cls-5" width="32" height="32"/></g><path class="cls-6" d="M18,18H28a2,2,0,0,1,2,2v6a2,2,0,0,1-2,2H25.577l-1.731,3-1.733-1,2.31-4H28V20H18v6h3v2H18a2,2,0,0,1-2-2V20A2,2,0,0,1,18,18Z"/></g></g></svg>
